packages/core/src/svgs/mcrt.svg

<svg width="24" height="24" viewBox="0 0 24 24" fill="none" xmlns="http://www.w3.org/2000/svg">
<g clip-path="url(#clip0_31_13595)">
<path d="M0 0H24V24H0V0Z" fill="url(#paint0_linear_31_13595)"/>
<path fill-rule="evenodd" clip-rule="evenodd" d="M12.0001 18.4284C13.7051 18.4284 15.3402 17.7511 16.5458 16.5455C17.7514 15.34 18.4287 13.7048 18.4287 11.9999C18.4287 10.2949 17.7514 8.65976 16.5458 7.45417C15.3402 6.24858 13.7051 5.57129 12.0001 5.57129C10.2951 5.57129 8.66001 6.24858 7.45442 7.45417C6.24883 8.65976 5.57153 10.2949 5.57153 11.9999C5.57153 13.7048 6.24883 15.34 7.45442 16.5455C8.66001 17.7511 10.2951 18.4284 12.0001 18.4284ZM12.0001 17.8713C13.5573 17.8713 15.0507 17.2527 16.1518 16.1516C17.2529 15.0505 17.8715 13.5571 17.8715 11.9999C17.8715 10.4427 17.2529 8.94924 16.1518 7.84813C15.0507 6.74703 13.5573 6.12843 12.0001 6.12843C10.4429 6.12843 8.94948 6.74703 7.84838 7.84813C6.74727 8.94924 6.12868 10.4427 6.12868 11.9999C6.12868 13.5571 6.74727 15.0505 7.84838 16.1516C8.94948 17.2527 10.4429 17.8713 12.0001 17.8713Z" fill="#CE3A6C"/>
<path fill-rule="evenodd" clip-rule="evenodd" d="M11.9999 18.1028C12.8153 18.1244 13.6267 17.9825 14.3862 17.6854C15.1458 17.3883 15.8382 16.942 16.4225 16.373C17.0068 15.804 17.4713 15.1237 17.7884 14.3722C18.1055 13.6208 18.2688 12.8134 18.2688 11.9978C18.2688 11.1822 18.1055 10.3748 17.7884 9.62337C17.4713 8.87192 17.0068 8.1916 16.4225 7.62256C15.8382 7.05352 15.1458 6.60729 14.3862 6.3102C13.6267 6.01311 12.8153 5.87118 11.9999 5.89278C10.3802 5.89278 8.82684 6.53621 7.68153 7.68153C6.53621 8.82684 5.89278 10.3802 5.89278 11.9999C5.89278 13.6196 6.53621 15.173 7.68153 16.3183C8.82684 17.4636 10.3802 18.1071 11.9999 18.1071V18.1028ZM11.9999 18.2528C12.8211 18.2528 13.6342 18.091 14.3928 17.7768C15.1514 17.4626 15.8407 17.002 16.4214 16.4214C17.002 15.8407 17.4626 15.1514 17.7768 14.3928C18.0911 13.6342 18.2528 12.8211 18.2528 11.9999C18.2528 11.1788 18.0911 10.3657 17.7768 9.60706C17.4626 8.84843 17.002 8.15912 16.4214 7.57849C15.8407 6.99786 15.1514 6.53728 14.3928 6.22304C13.6342 5.90881 12.8211 5.74707 11.9999 5.74707C10.3416 5.74707 8.75113 6.40585 7.57849 7.57849C6.40585 8.75113 5.74707 10.3416 5.74707 11.9999C5.74707 13.6583 6.40585 15.2487 7.57849 16.4214C8.75113 17.594 10.3416 18.2528 11.9999 18.2528Z" fill="#FFF6FF"/>
<path d="M8.90133 15.7886C8.43847 16.3457 7.50847 17.4643 7.4999 17.49C7.45276 17.43 7.21704 17.4429 7.09276 17.5757C7.0582 17.6166 7.03521 17.666 7.02617 17.7187C7.01713 17.7715 7.02236 17.8257 7.04133 17.8757L6.84847 17.9186L6.50562 19.2043L6.60419 19.2857L7.8599 18.7886L7.78704 18.5229C7.86419 18.5186 8.0399 18.48 8.09561 18.3857C8.15133 18.2914 8.13847 18.15 8.12133 18.0943L9.68133 16.26L8.90133 15.7886Z" fill="#602E9D"/>
<path d="M8.22865 18.0472L7.50008 17.3829L7.65008 17.2115L8.37865 17.8758L8.22865 18.0472ZM8.41293 17.7986L7.68436 17.1343L7.83865 16.9629L8.56722 17.6315L8.41293 17.7986ZM8.66579 17.5501L7.93722 16.8858L8.08722 16.7143L8.81579 17.3829L8.66579 17.5501ZM8.85008 17.3486L8.12151 16.6843L8.27579 16.5129L9.00436 17.1815L8.85008 17.3486ZM9.00008 17.1001L8.27579 16.4358L8.42579 16.2643L9.15436 16.9329L9.00008 17.1001ZM9.20151 16.8558L8.47294 16.1872L8.62722 16.0158L9.35579 16.6843L9.20151 16.8558ZM9.47151 16.6072L8.74722 15.9386L8.90151 15.7715L9.63008 16.4358L9.47151 16.6072ZM7.42722 17.7001C7.26436 17.6143 7.12722 17.6272 7.08008 17.6443C7.10579 17.4772 7.38008 17.4558 7.48293 17.4943C7.58579 17.5329 7.95436 17.9615 8.06151 18.0558C8.14722 18.1329 8.11722 18.1672 8.08722 18.1758C7.93294 18.0558 7.59008 17.7901 7.42722 17.7043V17.7001Z" fill="#441C56"/>
<path d="M7.9885 18.4372L7.27708 17.8286C7.40565 17.8543 7.69279 17.9358 7.85136 18.0729C8.00993 18.2143 8.00993 18.3729 7.9885 18.4372ZM6.57422 19.2258L6.64279 19.0115L6.75422 19.0672L7.5685 18.8315L6.68565 19.2258H6.57422Z" fill="#AE8FEC"/>
<path d="M7.55583 18.6645L6.99011 18.1802C6.99011 18.1887 6.99011 18.2102 7.00297 18.2402C7.01583 18.283 7.03297 18.3259 7.05011 18.4845C7.06726 18.643 7.02868 18.5359 7.01583 18.5787C6.99868 18.6216 7.01583 18.6345 6.95154 18.6516C6.88726 18.673 6.87868 18.7416 6.84011 18.8102C6.80583 18.8659 6.85297 18.9045 6.88297 18.913C6.93868 18.853 7.06726 18.7159 7.1144 18.6773C7.17011 18.6302 7.22583 18.6645 7.24297 18.6645C7.26011 18.6645 7.32011 18.6387 7.38011 18.6216C7.42726 18.6045 7.44011 18.643 7.4444 18.6645H7.55583Z" fill="#F781FC"/>
<path d="M9.47988 14.4644L9.2356 14.2501L9.57417 13.9844L11.0742 15.1287L11.0099 15.6344L10.6413 15.4629L10.3413 15.6858L9.39417 15.0515L9.47988 14.4644Z" fill="#382671"/>
<path d="M9.62573 15.0128L9.65573 14.5928L9.92145 14.8071L9.62573 15.0128ZM10.0629 14.9613L9.6943 15.1585L10.0372 15.4199L10.0629 14.9613ZM10.1786 15.0599L10.2257 15.5013L10.5386 15.3042L10.1786 15.0599Z" fill="#D83F7F"/>
<path d="M12.1713 17.1427C13.3285 17.1427 14.3956 16.7612 15.2528 16.1141C15.2313 16.0584 15.2313 15.9727 15.227 15.8827C15.227 15.7884 15.2228 15.6984 15.197 15.6427C15.1713 15.5784 15.2228 15.5741 15.2742 15.5698C15.3599 15.5612 15.4456 15.5527 15.2656 15.3427C15.2913 15.2569 15.2356 15.2312 15.1456 15.2398L14.9913 15.3769C14.9842 15.3395 14.9756 15.3023 14.9656 15.2655C14.9356 15.1584 14.9013 15.1755 14.7428 15.2569C14.477 15.3898 13.8428 15.7112 12.2656 15.9127C10.2599 16.1655 8.75133 14.6912 8.25419 13.9241C8.34847 14.1469 8.67419 14.6655 9.30419 15.3384C8.67317 14.7962 8.20891 14.0861 7.96532 13.2906C7.72174 12.4952 7.70882 11.6469 7.92808 10.8444C8.14733 10.0418 8.58976 9.31796 9.20398 8.75682C9.8182 8.19569 10.579 7.82032 11.398 7.67431C12.2171 7.5283 13.0607 7.61763 13.831 7.93194C14.6013 8.24625 15.2666 8.77263 15.7497 9.44996C16.2328 10.1273 16.5138 10.9278 16.5601 11.7584C16.6064 12.5891 16.4161 13.4158 16.0113 14.1427C16.0585 14.1684 16.1142 14.1898 16.1828 14.1984C16.3113 14.2155 16.4142 14.0484 16.4913 13.8169C16.4656 14.0312 16.4913 14.2327 16.5342 14.2455C16.5942 14.2669 16.877 13.4869 16.8942 13.3498C16.907 13.2641 16.907 13.7055 16.8385 14.1555C17.3047 13.1458 17.4309 12.0121 17.1984 10.9245C16.9659 9.83692 16.387 8.85401 15.5487 8.12318C14.7104 7.39235 13.6577 6.95298 12.5486 6.87095C11.4394 6.78891 10.3336 7.06864 9.39684 7.66819C8.4601 8.26773 7.74296 9.15478 7.35295 10.1963C6.96294 11.2379 6.92108 12.3778 7.23364 13.4451C7.5462 14.5125 8.19634 15.4497 9.08658 16.1164C9.97681 16.783 11.0592 17.1431 12.1713 17.1427ZM16.4913 13.8212C16.4999 13.7527 16.517 13.6798 16.5342 13.6155C16.5989 13.3887 16.642 13.1562 16.6628 12.9212C16.6413 13.1655 16.5856 13.5384 16.4913 13.8212Z" fill="url(#paint1_linear_31_13595)"/>
<path d="M8.7729 13.5899C8.6676 13.6347 8.55065 13.6442 8.43946 13.6172C8.32827 13.5902 8.22877 13.528 8.15576 13.4399C8.28005 14.297 9.17148 14.3056 9.60433 14.2027C9.91748 14.6667 10.3559 15.0323 10.8686 15.257C10.7272 16.4099 11.4772 16.5685 11.8672 16.4999C11.52 15.887 11.7472 15.4627 11.9058 15.3256L9.35148 13.3413C9.28719 13.3756 9.08148 13.4699 8.7729 13.5899Z" fill="url(#paint2_linear_31_13595)"/>
<path d="M9.3428 13.4999L9.29565 13.9799L9.77565 13.8213L9.33851 13.4956L9.3428 13.4999ZM11.1557 15.077L11.1128 15.557L11.5928 15.4027L11.1557 15.077Z" fill="#D83F7F"/>
<path d="M11.0614 12.3945H10.6628L10.7614 12.8016H10.3543L10.4314 13.1316H10.0586V13.2131H9.95142V13.4102L10.5343 14.3102L13.7357 10.7102L18.2657 5.25021L18.1457 5.14307C17.0143 5.80307 16.1143 5.83307 15.8057 5.76878L11.4128 11.5802L10.9157 11.9745L11.0614 12.3945Z" fill="url(#paint3_linear_31_13595)"/>
<path d="M10.6628 12.3941H11.0614L10.9157 11.9741L11.4128 11.5798L12.6728 9.91699C13.0157 10.0798 13.4486 10.337 13.3371 10.4656C13.2 10.6198 12.7243 10.5084 12.5057 10.4313L11.9486 11.0741H12.4886C12.5486 11.0656 12.6814 11.0784 12.6814 11.2027C12.6814 11.3656 12.1971 11.4898 11.6186 11.4684L12.2143 12.4198L10.5343 14.3098L9.95142 13.4099V13.2127H10.0586V13.1313H10.4314L10.3543 12.8013H10.7614L10.6628 12.3941Z" fill="#AFDDEA"/>
<path d="M15.2444 6.51449C15.493 6.45878 15.8444 6.42021 16.1015 6.52307C16.4444 6.66021 16.5944 6.86592 16.5858 7.27307L18.2658 5.25021L18.1458 5.14307C17.0144 5.80307 16.1144 5.83307 15.8058 5.76878L15.2444 6.51449Z" fill="#F3FFFD"/>
<path d="M12.4672 13.6029L12.5315 14.0014L12.12 13.9671L12.1843 14.3743L11.85 14.3529L11.91 14.7214L11.8329 14.7343L11.85 14.8457L11.6572 14.8757L10.6843 14.4429L13.8043 10.6243L18.27 5.25L18.3986 5.35286C17.9358 6.59571 18.0472 7.49571 18.1629 7.79571L13.2 13.1143L12.9 13.68L12.4629 13.5986L12.4672 13.6029Z" fill="#3D89C7"/>
<path d="M16.4658 7.42714C16.8858 7.09286 17.3873 6.74571 17.4901 6.86143C17.6315 7.02 17.833 7.28143 17.8287 8.15143L18.163 7.79571C18.0473 7.49571 17.9358 6.59571 18.3944 5.35286L18.2701 5.25L16.4658 7.42714Z" fill="#184BB9"/>
<path d="M13.4742 11.2588L17.5885 6.27881C16.0885 8.49024 13.0456 12.9602 12.9171 13.1317C12.7842 13.3031 12.6128 13.4317 12.5399 13.4745H12.2614V13.8731H11.9057V14.1645H11.5628V14.5074L11.1128 14.3574L11.4985 13.8731L12.5399 13.2088L12.3771 13.0502L12.9171 12.7074L12.7242 12.5188L13.1356 12.236L13.0071 12.0688L13.4785 11.2545L13.4742 11.2588Z" fill="#5AA3D6"/>
<path d="M10.997 13.2172C10.8899 13.5257 10.3799 13.8514 10.1399 13.9757L10.5642 14.4472L10.997 14.6872C10.997 14.22 11.8799 13.4872 12.3256 13.1786L12.2185 13.0586L12.7327 12.66L12.5185 12.5872L12.9599 12.2529L12.8142 12.18L13.7142 10.6543L12.437 11.8457L12.317 11.6614L12.0899 12.2529L11.9485 11.9957L11.6699 12.66L11.5156 12.4329L11.1042 13.2172H10.9927H10.997Z" fill="url(#paint4_linear_31_13595)"/>
<path d="M11.1642 13.217L10.8813 13.6028L11.3528 13.217H11.4985L13.0842 11.3999L12.4156 12.047L12.3128 11.9528L12.1328 12.3685H11.9871L11.7085 12.7928L11.5413 12.707L11.2756 13.217H11.1642Z" fill="#1ED096"/>
</g>
<defs>
<linearGradient id="paint0_linear_31_13595" x1="12" y1="0" x2="12" y2="24" gradientUnits="userSpaceOnUse">
<stop stop-color="#0C1817"/>
<stop offset="0.69" stop-color="#254AAB"/>
<stop offset="1" stop-color="#CD70F8"/>
</linearGradient>
<linearGradient id="paint1_linear_31_13595" x1="7.31562" y1="9.81837" x2="16.7099" y2="13.6369" gradientUnits="userSpaceOnUse">
<stop offset="0.55" stop-color="#F3FEFF"/>
<stop offset="1" stop-color="#2DD2EE"/>
</linearGradient>
<linearGradient id="paint2_linear_31_13595" x1="9.8529" y1="14.777" x2="10.35" y2="14.1727" gradientUnits="userSpaceOnUse">
<stop stop-color="#21826F"/>
<stop offset="1" stop-color="#062F6F"/>
</linearGradient>
<linearGradient id="paint3_linear_31_13595" x1="14.1086" y1="7.96735" x2="15.2743" y2="8.84592" gradientUnits="userSpaceOnUse">
<stop offset="0.07" stop-color="#B1E2EF"/>
<stop offset="0.18" stop-color="#CFECF2"/>
<stop offset="0.82" stop-color="#CDEAEE"/>
<stop offset="1" stop-color="#ADE0F3"/>
</linearGradient>
<linearGradient id="paint4_linear_31_13595" x1="11.237" y1="12.8786" x2="11.8927" y2="13.4957" gradientUnits="userSpaceOnUse">
<stop stop-color="#108550"/>
<stop offset="1" stop-color="#0E4E4D"/>
</linearGradient>
<clipPath id="clip0_31_13595">
<rect width="24" height="24" fill="white"/>
</clipPath>
</defs>
</svg>

<svg xmlns="http://www.w3.org/2000/svg" width="24" height="24" fill="none" viewBox="0 0 24 24"><g clip-path="url(#a)"><path fill="url(#b)" d="M0 0h24v24H0z"/><path fill="#CE3A6C" fill-rule="evenodd" d="M12 18.428a6.429 6.429 0 1 0 0-12.857 6.429 6.429 0 0 0 0 12.857m0-.557A5.871 5.871 0 1 0 12 6.13a5.871 5.871 0 0 0 0 11.742" clip-rule="evenodd"/><path fill="#FFF6FF" fill-rule="evenodd" d="M12 18.103a6.106 6.106 0 1 0 0-12.21 6.107 6.107 0 0 0 0 12.214zm0 .15a6.253 6.253 0 1 0 0-12.507 6.253 6.253 0 0 0 0 12.507" clip-rule="evenodd"/><path fill="#602E9D" d="M8.901 15.789c-.463.557-1.393 1.675-1.401 1.701-.047-.06-.283-.047-.407.086a.3.3 0 0 0-.052.3l-.193.043-.342 1.285.098.082 1.256-.497-.073-.266c.077-.004.253-.043.309-.137a.42.42 0 0 0 .025-.292l1.56-1.834z"/><path fill="#441C56" d="m8.229 18.047-.729-.664.15-.171.729.664zm.184-.248-.729-.665.155-.171.728.668zm.253-.249-.729-.664.15-.172.729.669zm.184-.201-.728-.665.154-.171.728.668zM9 17.1l-.724-.664.15-.172.728.669zm.202-.244-.73-.669.155-.171.729.668zm.27-.249-.725-.668.155-.168.728.665zM7.427 17.7c-.163-.086-.3-.073-.347-.056.026-.167.3-.188.403-.15s.471.468.579.562c.085.077.055.111.025.12-.154-.12-.497-.386-.66-.472z"/><path fill="#AE8FEC" d="m7.989 18.437-.712-.608c.129.025.416.107.574.244.159.141.159.3.138.364m-1.415.789.069-.214.111.055.815-.236-.883.395z"/><path fill="#F781FC" d="m7.556 18.665-.566-.485c0 .009 0 .03.013.06.013.043.03.086.047.245.017.158-.021.05-.034.094-.017.043 0 .055-.064.073-.065.021-.073.09-.112.158-.034.056.013.095.043.103.056-.06.184-.197.231-.236.056-.047.112-.012.129-.012s.077-.026.137-.043c.047-.017.06.021.064.043z"/><path fill="#382671" d="m9.48 14.464-.244-.214.338-.266 1.5 1.145-.064.505-.369-.171-.3.223-.947-.634z"/><path fill="#D83F7F" d="m9.626 15.013.03-.42.265.214zm.437-.052-.369.197.343.262zm.116.099.047.441.313-.197z"/><path fill="url(#c)" d="M12.171 17.143a5.1 5.1 0 0 0 3.082-1.029c-.022-.056-.022-.141-.026-.231a.6.6 0 0 0-.03-.24c-.026-.065.026-.069.077-.073.086-.009.172-.017-.008-.227.025-.086-.03-.112-.12-.103l-.155.137a2 2 0 0 0-.025-.112c-.03-.107-.065-.09-.223-.008-.266.133-.9.454-2.477.656-2.006.253-3.515-1.222-4.012-1.989.094.223.42.742 1.05 1.414a4.397 4.397 0 1 1 6.707-1.195.5.5 0 0 0 .172.055c.128.018.231-.15.308-.381-.025.214 0 .416.043.428.06.022.343-.758.36-.895.013-.086.013.356-.055.806a5.143 5.143 0 1 0-4.668 2.987m4.32-3.322c.009-.068.026-.141.043-.205a3.7 3.7 0 0 0 .129-.695 4.4 4.4 0 0 1-.172.9"/><path fill="url(#d)" d="M8.773 13.59a.53.53 0 0 1-.617-.15c.124.857 1.015.866 1.448.763.313.464.752.83 1.265 1.054-.142 1.153.608 1.312.998 1.243-.347-.613-.12-1.037.039-1.174L9.35 13.34c-.064.035-.27.129-.578.249"/><path fill="#D83F7F" d="m9.343 13.5-.047.48.48-.159-.437-.325zm1.813 1.577-.043.48.48-.154z"/><path fill="url(#e)" d="M11.061 12.395h-.398l.098.407h-.407l.077.33h-.372v.081H9.95v.197l.583.9 3.202-3.6 4.53-5.46-.12-.107c-1.132.66-2.032.69-2.34.626l-4.393 5.811-.497.395z"/><path fill="#AFDDEA" d="M10.663 12.394h.398l-.145-.42.497-.394 1.26-1.663c.343.163.776.42.664.549-.137.154-.613.042-.831-.035l-.557.643h.54c.06-.008.192.004.192.129 0 .163-.484.287-1.062.265l.595.952-1.68 1.89-.583-.9v-.197h.108v-.082h.372l-.077-.33h.407z"/><path fill="#F3FFFD" d="M15.244 6.514c.249-.055.6-.094.858.01.342.136.492.342.484.75l1.68-2.024-.12-.107c-1.132.66-2.032.69-2.34.626z"/><path fill="#3D89C7" d="m12.467 13.603.064.398-.411-.034.064.407-.334-.021.06.368-.077.013.017.112-.193.03-.973-.433 3.12-3.819L18.27 5.25l.129.103c-.463 1.243-.352 2.143-.236 2.443L13.2 13.114l-.3.566-.437-.081z"/><path fill="#184BB9" d="M16.466 7.427c.42-.334.921-.681 1.024-.566.142.159.343.42.339 1.29l.334-.355c-.116-.3-.227-1.2.231-2.443l-.124-.103z"/><path fill="#5AA3D6" d="m13.474 11.259 4.115-4.98c-1.5 2.211-4.543 6.681-4.672 6.853-.133.171-.304.3-.377.343h-.279v.398h-.355v.292h-.343v.342l-.45-.15.386-.484 1.04-.664-.162-.159.54-.343-.193-.188.412-.283-.129-.167.472-.815z"/><path fill="url(#f)" d="M10.997 13.217c-.107.309-.617.634-.857.759l.424.471.433.24c0-.467.883-1.2 1.329-1.508l-.107-.12.514-.399-.215-.073.442-.334-.146-.073.9-1.526-1.277 1.192-.12-.185-.227.592-.142-.257-.278.664-.154-.227-.412.784h-.111z"/><path fill="#1ED096" d="m11.164 13.217-.283.386.472-.386h.146l1.585-1.817-.668.647-.103-.094-.18.415h-.146l-.278.425-.168-.086-.265.51z"/></g><defs><linearGradient id="b" x1="12" x2="12" y1="0" y2="24" gradientUnits="userSpaceOnUse"><stop stop-color="#0C1817"/><stop offset=".69" stop-color="#254AAB"/><stop offset="1" stop-color="#CD70F8"/></linearGradient><linearGradient id="c" x1="7.316" x2="16.71" y1="9.818" y2="13.637" gradientUnits="userSpaceOnUse"><stop offset=".55" stop-color="#F3FEFF"/><stop offset="1" stop-color="#2DD2EE"/></linearGradient><linearGradient id="d" x1="9.853" x2="10.35" y1="14.777" y2="14.173" gradientUnits="userSpaceOnUse"><stop stop-color="#21826F"/><stop offset="1" stop-color="#062F6F"/></linearGradient><linearGradient id="e" x1="14.109" x2="15.274" y1="7.967" y2="8.846" gradientUnits="userSpaceOnUse"><stop offset=".07" stop-color="#B1E2EF"/><stop offset=".18" stop-color="#CFECF2"/><stop offset=".82" stop-color="#CDEAEE"/><stop offset="1" stop-color="#ADE0F3"/></linearGradient><linearGradient id="f" x1="11.237" x2="11.893" y1="12.879" y2="13.496" gradientUnits="userSpaceOnUse"><stop stop-color="#108550"/><stop offset="1" stop-color="#0E4E4D"/></linearGradient><clipPath id="a"><path fill="#fff" d="M0 0h24v24H0z"/></clipPath></defs></svg>
